packages/ui/src/lib/icons/svg/ai.svg

<svg width="100%" height="100%" viewBox="0 0 16 16" fill="none" xmlns="http://www.w3.org/2000/svg">
  <path
    d="M8.99902 6.66602L9.11133 6.88867L9.33398 7.00098L12.3252 8.5L9.33398 9.99902L9.11133 10.1113L8.99902 10.334L7.5 13.3252L6.00098 10.334L5.88867 10.1113L5.66602 9.99902L2.67383 8.5L5.66602 7.00098L5.88867 6.88867L6.00098 6.66602L7.5 3.67383L8.99902 6.66602Z"
    stroke="currentColor" stroke-width="1.5" />
  <circle cx="13" cy="3" r="2" fill="currentColor" />
</svg>

<svg xmlns="http://www.w3.org/2000/svg" fill="none" viewBox="0 0 16 16" width="100%" height="100%"><path stroke="currentColor" stroke-width="1.5" d="m8.999 6.666.112.223.223.112L12.325 8.5 9.334 9.999l-.223.112-.112.223L7.5 13.325l-1.499-2.991-.112-.223L5.666 10 2.674 8.5l2.992-1.499.223-.112L6 6.666l1.5-2.992z"/><circle cx="13" cy="3" r="2" fill="currentColor"/></svg>
